www/assets/icons/troubleshoot.svg

<svg xmlns="http://www.w3.org/2000/svg" width="24" height="24" viewBox="0 0 24 24" fill='currentColor'><path d="m22.5 20.09-4.69-4.69a7.9 7.9 0 0 0 1.69-4.9c0-4.42-3.58-8-8-8-4.08 0-7.44 3.05-7.93 7h2.02c.48-2.83 2.94-5 5.91-5 3.31 0 6 2.69 6 6s-2.69 6-6 6c-2.42 0-4.5-1.44-5.45-3.5H3.9c1.05 3.19 4.06 5.5 7.6 5.5 1.85 0 3.55-.63 4.9-1.69l4.69 4.69z"/><path d="m8.93 9.19 1.22 5.31h1.64l1.26-3.78L14 13h2v-1.5h-1l-1.25-3h-1.54l-1.12 3.37L9.85 6.5H8.2l-1.25 4H1.5V12h6.55z"/></svg>

<svg width="24" height="24" viewBox="0 0 24 24" xmlns="http://www.w3.org/2000/svg" fill='currentColor'><path d="M22.5 20.09L17.81 15.4C18.87 14.05 19.5 12.35 19.5 10.5C19.5 6.08 15.92 2.5 11.5 2.5C7.42 2.5 4.06 5.55 3.57 9.5H5.59C6.07 6.67 8.53 4.5 11.5 4.5C14.81 4.5 17.5 7.19 17.5 10.5C17.5 13.81 14.81 16.5 11.5 16.5C9.08 16.5 7 15.06 6.05 13H3.9C4.95 16.19 7.96 18.5 11.5 18.5C13.35 18.5 15.05 17.87 16.4 16.81L21.09 21.5L22.5 20.09Z"/><path d="M8.93 9.19L10.15 14.5H11.79L13.05 10.72L14 13H16V11.5H15L13.75 8.5H12.21L11.09 11.87L9.85 6.5H8.2L6.95 10.5H1.5V12H8.05L8.93 9.19Z"/></svg>
